X:1
T:Nicky Tams
M:4/4
L:1/16
K:D
 D| D3 D F3 A G3 E =C3 E| D3 D D3 D D4 z2 D2| D3 D F3 A d3 d A3 B|\
 =c3 A B3 G A6| A2| A3 A d3 d d3 d A3 B| =c3 c B3 G d6 A2| D3 D F3 AG E3 =C3 E|\
 D3 D D3 D D6||
